assets/svg/gear.svg

<svg width="75" height="75" viewBox="0 0 75 75" fill="none" xmlns="http://www.w3.org/2000/svg">
<mask id="mask0" mask-type="alpha" maskUnits="userSpaceOnUse" x="22" y="23" width="46" height="46">
<path fill-rule="evenodd" clip-rule="evenodd" d="M43.3 23.749C42.107 23.751 41.082 24.593 40.85 25.763L40.112 29.451L36.573 30.919L33.447 28.832C32.457 28.171 31.137 28.3 30.292 29.141L27.888 31.547C27.046 32.391 26.916 33.711 27.579 34.701L29.665 37.826L28.2 41.363L24.512 42.1C23.344 42.333 22.502 43.358 22.5 44.551V47.951C22.502 49.142 23.344 50.167 24.512 50.4L28.2 51.137L29.665 54.677L27.579 57.804C26.916 58.794 27.046 60.114 27.888 60.958L30.296 63.363C31.14 64.205 32.46 64.334 33.45 63.671L36.576 61.586L40.112 63.051L40.85 66.737C41.082 67.907 42.107 68.749 43.3 68.751H46.7C47.891 68.749 48.916 67.907 49.149 66.737L49.888 63.051L53.428 61.586L56.553 63.671C57.543 64.334 58.865 64.205 59.707 63.363L62.112 60.955C62.954 60.111 63.083 58.79 62.421 57.799L60.335 54.674L61.8 51.137L65.488 50.4C66.656 50.167 67.5 49.142 67.5 47.951V44.551C67.5 43.358 66.656 42.333 65.488 42.1L61.8 41.363L60.331 37.823L62.417 34.698C63.08 33.706 62.951 32.386 62.108 31.542L59.704 29.137C58.86 28.297 57.539 28.167 56.549 28.829L53.423 30.916L49.888 29.451L49.149 25.763C48.916 24.593 47.891 23.751 46.7 23.749H43.3Z" fill="white"/>
</mask>
<g mask="url(#mask0)">
<path fill-rule="evenodd" clip-rule="evenodd" d="M17.5 73.75H72.5V18.75H17.5V73.75Z" fill="#03D79E"/>
</g>
<mask id="mask1" mask-type="alpha" maskUnits="userSpaceOnUse" x="1" y="1" width="73" height="11">
<path fill-rule="evenodd" clip-rule="evenodd" d="M6.251 1.25C3.489 1.25 1.25 3.49 1.25 6.25V11.25H73.75V6.25C73.75 3.49 71.512 1.25 68.75 1.25H6.251Z" fill="white"/>
</mask>
<g mask="url(#mask1)">
<path fill-rule="evenodd" clip-rule="evenodd" d="M-3.75 16.25H78.75V-3.75H-3.75V16.25Z" fill="#00FFA4"/>
</g>
<mask id="mask2" mask-type="alpha" maskUnits="userSpaceOnUse" x="40" y="41" width="10" height="11">
<path fill-rule="evenodd" clip-rule="evenodd" d="M40 46.251C40 49.011 42.238 51.25 45 51.25C47.762 51.25 50 49.011 50 46.251C50 43.489 47.762 41.25 45 41.25C42.238 41.25 40 43.489 40 46.251Z" fill="white"/>
</mask>
<g mask="url(#mask2)">
<path fill-rule="evenodd" clip-rule="evenodd" d="M35 56.25H55V36.25H35V56.25Z" fill="#00FFA4"/>
</g>
<path fill-rule="evenodd" clip-rule="evenodd" d="M1.25308 62.6938C1.04208 62.6948 0.85508 62.7738 0.71408 62.9158C0.57308 63.0588 0.49608 63.2468 0.49708 63.4468C0.49808 63.6488 0.57708 63.8358 0.71908 63.9768C0.86108 64.1168 1.04408 64.2238 1.25008 64.1938H1.25308C1.66608 64.1938 2.00308 63.8578 2.00308 63.4438C2.00308 63.0298 1.66608 62.6938 1.25308 62.6938Z" fill="#00343D"/>
<path fill-rule="evenodd" clip-rule="evenodd" d="M27.048 49.4409L27.186 50.1689L24.662 49.6659C23.849 49.5009 23.256 48.7809 23.25 47.9539V44.5499C23.251 43.7179 23.845 42.9969 24.661 42.8359L27.186 42.3309L27.048 43.0589C26.649 45.1759 26.649 47.3239 27.048 49.4409ZM8.25 21.2499C8.25 19.5959 9.596 18.2499 11.25 18.2499H41.25C42.904 18.2499 44.25 19.5959 44.25 21.2499V22.9999H43.3C41.761 23.0059 40.42 24.1069 40.115 25.6169L39.464 28.8719L39.192 28.9649C38.407 29.2309 37.635 29.5539 36.895 29.9239L36.635 30.0539L33.861 28.2019C32.578 27.3529 30.854 27.5249 29.761 28.6099L27.354 31.0119C26.27 32.1039 26.1 33.8309 26.951 35.1149L28.799 37.8859L28.669 38.1449C28.299 38.8839 27.977 39.6569 27.71 40.4409L27.617 40.7139L24.358 41.3649C22.853 41.6729 21.755 43.0129 21.75 44.5509V47.9499C21.756 49.4889 22.857 50.8299 24.367 51.1349L27.622 51.7869L27.715 52.0599C27.982 52.8439 28.304 53.6159 28.674 54.3549L28.804 54.6149L26.952 57.3889C26.104 58.6719 26.275 60.3969 27.36 61.4889L29.762 63.8969C30.854 64.9829 32.582 65.1499 33.865 64.2999L36.635 62.4519L36.895 62.5819C37.636 62.9519 38.408 63.2749 39.191 63.5399L39.464 63.6329L40.115 66.8919C40.423 68.3979 41.764 69.4949 43.302 69.4999H44.25V72.9999H8.25V21.2499ZM46.701 24.4999C47.533 24.5019 48.254 25.0959 48.414 25.9109L48.92 28.4349L48.192 28.2979C46.074 27.8989 43.926 27.8989 41.809 28.2979L41.08 28.4349L41.585 25.9119C41.748 25.0999 42.468 24.5059 43.296 24.4999H46.701ZM29.623 36.4249L28.199 34.2909C27.736 33.5969 27.828 32.6639 28.419 32.0729L28.741 31.7499L28.748 31.7549L30.829 29.6739C31.426 29.0889 32.327 29.0019 33.024 29.4569L35.163 30.8839L34.565 31.3039C32.798 32.5399 31.277 34.0609 30.043 35.8259L29.623 36.4249ZM35.176 61.6279L33.041 63.0509C32.745 63.2479 32.406 63.3439 32.069 63.3439C31.617 63.3439 31.168 63.1719 30.831 62.8369L28.425 60.4319C27.837 59.8429 27.746 58.9139 28.209 58.2229L29.634 56.0869L30.053 56.6859C31.289 58.4509 32.811 59.9729 34.576 61.2079L35.176 61.6279ZM61.75 46.2499C61.75 55.4859 54.236 62.9999 45 62.9999C35.764 62.9999 28.25 55.4859 28.25 46.2499C28.25 37.0139 35.764 29.4999 45 29.4999C54.226 29.5109 61.739 37.0239 61.75 46.2499ZM56.966 29.4589C57.657 28.9989 58.587 29.0899 59.177 29.6709L61.581 32.0779C62.169 32.6679 62.26 33.5969 61.796 34.2889L60.372 36.4239L59.952 35.8239C58.718 34.0589 57.196 32.5379 55.431 31.3019L54.832 30.8829L56.966 29.4589ZM61.796 58.2149C62.255 58.9059 62.166 59.8359 61.583 60.4249L61.581 60.4269L59.179 62.8309C58.84 63.1659 58.39 63.3389 57.938 63.3389C57.601 63.3389 57.263 63.2429 56.969 63.0479L54.831 61.6229L55.431 61.2029C57.196 59.9669 58.718 58.4459 59.952 56.6809L60.372 56.0819L61.796 58.2149ZM48.415 66.5879C48.252 67.4009 47.532 67.9949 46.703 67.9999H43.3H43.299C42.467 67.9989 41.746 67.4049 41.586 66.5889L41.08 64.0659L41.809 64.2029C43.926 64.5999 46.074 64.5999 48.192 64.2029L48.92 64.0659L48.415 66.5879ZM62.952 43.0589L62.815 42.3309L65.336 42.8349C66.151 42.9979 66.744 43.7179 66.75 44.5459V47.9499C66.749 48.7829 66.154 49.5029 65.338 49.6649L62.815 50.1699L62.952 49.4409C63.352 47.3239 63.352 45.1759 62.952 43.0589ZM2 10.4999V6.24988C2 3.90688 3.906 1.99988 6.25 1.99988H68.75C71.094 1.99988 73 3.90688 73 6.24988V10.4999H2ZM6.251 74.4999H68.75C71.917 74.4969 74.496 71.9169 74.5 68.7499V6.24988C74.496 3.08388 71.917 0.503878 68.749 0.499878H6.25C3.083 0.503878 0.504 3.08388 0.5 6.25088V58.7499C0.5 59.1639 0.837 59.4999 1.25 59.4999C1.663 59.4999 2 59.1639 2 58.7499V11.9999H73V68.7499C73 71.0929 71.094 72.9999 68.75 72.9999H45.75V69.4999H46.7C48.239 69.4949 49.579 68.3939 49.885 66.8829L50.536 63.6279L50.81 63.5349C51.589 63.2709 52.361 62.9479 53.106 62.5769L53.365 62.4469L56.139 64.2979C57.422 65.1459 59.148 64.9749 60.24 63.8899L62.647 61.4879C63.732 60.3969 63.902 58.6699 63.051 57.3849L61.201 54.6129L61.331 54.3539C61.699 53.6209 62.022 52.8489 62.29 52.0589L62.383 51.7869L65.643 51.1349C67.147 50.8269 68.244 49.4869 68.25 47.9479V44.5499C68.244 43.0109 67.144 41.6709 65.633 41.3649L62.378 40.7139L62.285 40.4409C62.02 39.6579 61.696 38.8859 61.326 38.1459L61.196 37.8869L63.048 35.1109C63.897 33.8289 63.726 32.1039 62.641 31.0109L60.238 28.6029C59.148 27.5189 57.42 27.3499 56.135 28.2009L53.365 30.0479L53.106 29.9189C52.361 29.5469 51.589 29.2239 50.81 28.9599L50.536 28.8669L49.885 25.6129C49.578 24.1049 48.238 23.0049 46.698 22.9999H45.75V21.2499C45.75 18.7689 43.732 16.7499 41.25 16.7499H11.25C8.769 16.7499 6.75 18.7689 6.75 21.2499V72.9999H6.25C3.906 72.9999 2 71.0929 2 68.7499C2 68.3369 1.663 67.9999 1.25 67.9999C0.837 67.9999 0.5 68.3369 0.5 68.7499C0.504 71.9169 3.083 74.4969 6.251 74.4999Z" fill="#00343D"/>
<path fill-rule="evenodd" clip-rule="evenodd" d="M69.5 6.25C69.5 5.836 69.163 5.5 68.75 5.5H68.25V5C68.25 4.586 67.913 4.25 67.5 4.25C67.087 4.25 66.75 4.586 66.75 5V5.5H66.25C65.837 5.5 65.5 5.836 65.5 6.25C65.5 6.664 65.837 7 66.25 7H66.75V7.5C66.75 7.914 67.087 8.25 67.5 8.25C67.913 8.25 68.25 7.914 68.25 7.5V7H68.75C69.163 7 69.5 6.664 69.5 6.25Z" fill="#00343D"/>
<path fill-rule="evenodd" clip-rule="evenodd" d="M61.25 5.5H58.75C58.337 5.5 58 5.836 58 6.25C58 6.664 58.337 7 58.75 7H61.25C61.663 7 62 6.664 62 6.25C62 5.836 61.663 5.5 61.25 5.5Z" fill="#00343D"/>
<path fill-rule="evenodd" clip-rule="evenodd" d="M58.25 46.2495C58.25 45.8365 57.913 45.4995 57.5 45.4995C57.087 45.4995 56.75 45.8365 56.75 46.2495C56.742 52.7215 51.471 57.9925 45.001 57.9995C44.587 57.9995 44.25 58.3365 44.25 58.7495C44.25 59.1635 44.587 59.4995 45 59.4995C52.297 59.4915 58.241 53.5475 58.25 46.2495Z" fill="#00343D"/>
<path fill-rule="evenodd" clip-rule="evenodd" d="M45 33C37.703 33.008 31.759 38.953 31.75 46.25C31.75 46.664 32.087 47 32.5 47C32.913 47 33.25 46.664 33.25 46.25C33.258 39.779 38.529 34.508 44.999 34.5C45.413 34.5 45.75 34.164 45.75 33.75C45.75 33.336 45.413 33 45 33Z" fill="#00343D"/>
<path fill-rule="evenodd" clip-rule="evenodd" d="M45 50.5C42.656 50.5 40.75 48.593 40.75 46.25C40.75 43.907 42.656 42 45 42C47.344 42 49.25 43.907 49.25 46.25C49.25 48.593 47.344 50.5 45 50.5ZM45 40.5C41.833 40.504 39.254 43.083 39.25 46.25C39.25 49.421 41.83 52 45 52C48.171 52 50.75 49.42 50.75 46.25C50.75 43.08 48.171 40.5 45 40.5Z" fill="#00343D"/>
<path fill-rule="evenodd" clip-rule="evenodd" d="M27.5 23H13.75C13.337 23 13 23.336 13 23.75C13 24.164 13.337 24.5 13.75 24.5H27.5C27.913 24.5 28.25 24.164 28.25 23.75C28.25 23.336 27.913 23 27.5 23Z" fill="#00343D"/>
<path fill-rule="evenodd" clip-rule="evenodd" d="M21.25 33H13.75C13.337 33 13 33.336 13 33.75C13 34.164 13.337 34.5 13.75 34.5H21.25C21.663 34.5 22 34.164 22 33.75C22 33.336 21.663 33 21.25 33Z" fill="#00343D"/>
<path fill-rule="evenodd" clip-rule="evenodd" d="M20 38H13.75C13.337 38 13 38.336 13 38.75C13 39.164 13.337 39.5 13.75 39.5H20C20.413 39.5 20.75 39.164 20.75 38.75C20.75 38.336 20.413 38 20 38Z" fill="#00343D"/>
<path fill-rule="evenodd" clip-rule="evenodd" d="M17.5 43H13.75C13.337 43 13 43.336 13 43.75C13 44.164 13.337 44.5 13.75 44.5H17.5C17.913 44.5 18.25 44.164 18.25 43.75C18.25 43.336 17.913 43 17.5 43Z" fill="#00343D"/>
<path fill-rule="evenodd" clip-rule="evenodd" d="M17.5 48H13.75C13.337 48 13 48.336 13 48.75C13 49.164 13.337 49.5 13.75 49.5H17.5C17.913 49.5 18.25 49.164 18.25 48.75C18.25 48.336 17.913 48 17.5 48Z" fill="#00343D"/>
<path fill-rule="evenodd" clip-rule="evenodd" d="M20 53H13.75C13.337 53 13 53.336 13 53.75C13 54.164 13.337 54.5 13.75 54.5H20C20.413 54.5 20.75 54.164 20.75 53.75C20.75 53.336 20.413 53 20 53Z" fill="#00343D"/>
<path fill-rule="evenodd" clip-rule="evenodd" d="M21.25 58H13.75C13.337 58 13 58.336 13 58.75C13 59.164 13.337 59.5 13.75 59.5H21.25C21.663 59.5 22 59.164 22 58.75C22 58.336 21.663 58 21.25 58Z" fill="#00343D"/>
<path fill-rule="evenodd" clip-rule="evenodd" d="M22.5 63H13.75C13.337 63 13 63.336 13 63.75C13 64.164 13.337 64.5 13.75 64.5H22.5C22.913 64.5 23.25 64.164 23.25 63.75C23.25 63.336 22.913 63 22.5 63Z" fill="#00343D"/>
<path fill-rule="evenodd" clip-rule="evenodd" d="M27.5 68H13.75C13.337 68 13 68.336 13 68.75C13 69.164 13.337 69.5 13.75 69.5H27.5C27.913 69.5 28.25 69.164 28.25 68.75C28.25 68.336 27.913 68 27.5 68Z" fill="#00343D"/>
<path fill-rule="evenodd" clip-rule="evenodd" d="M21.25 28H13.75C13.337 28 13 28.336 13 28.75C13 29.164 13.337 29.5 13.75 29.5H21.25C21.663 29.5 22 29.164 22 28.75C22 28.336 21.663 28 21.25 28Z" fill="#00343D"/>
</svg>

<svg fill="none" height="75" viewBox="0 0 75 75" width="75" xmlns="http://www.w3.org/2000/svg" xmlns:xlink="http://www.w3.org/1999/xlink"><mask id="a" height="46" maskUnits="userSpaceOnUse" width="46" x="22" y="23"><path clip-rule="evenodd" d="m43.3 23.749c-1.193.002-2.218.844-2.45 2.014l-.738 3.688-3.539 1.468-3.126-2.087c-.99-.661-2.31-.532-3.155.309l-2.404 2.406c-.842.844-.972 2.164-.309 3.154l2.086 3.125-1.465 3.537-3.688.737c-1.168.233-2.01 1.258-2.012 2.451v3.4c.002 1.191.844 2.216 2.012 2.449l3.688.737 1.465 3.54-2.086 3.127c-.663.99-.533 2.31.309 3.154l2.408 2.405c.844.842 2.164.971 3.154.308l3.126-2.085 3.536 1.465.738 3.686c.232 1.17 1.257 2.012 2.45 2.014h3.4c1.191-.002 2.216-.844 2.449-2.014l.739-3.686 3.54-1.465 3.125 2.085c.99.663 2.312.534 3.154-.308l2.405-2.408c.842-.844.971-2.165.309-3.156l-2.086-3.125 1.465-3.537 3.688-.737c1.168-.233 2.012-1.258 2.012-2.449v-3.4c0-1.193-.844-2.218-2.012-2.451l-3.688-.737-1.469-3.54 2.086-3.125c.663-.992.534-2.312-.309-3.156l-2.404-2.405c-.844-.84-2.165-.97-3.155-.308l-3.126 2.087-3.535-1.465-.739-3.688c-.233-1.17-1.258-2.012-2.449-2.014z" fill="#fff" fill-rule="evenodd"/></mask><mask id="b" height="11" maskUnits="userSpaceOnUse" width="73" x="1" y="1"><path clip-rule="evenodd" d="m6.251 1.25c-2.762 0-5.001 2.24-5.001 5v5h72.5v-5c0-2.76-2.238-5-5-5z" fill="#fff" fill-rule="evenodd"/></mask><mask id="c" height="11" maskUnits="userSpaceOnUse" width="10" x="40" y="41"><path clip-rule="evenodd" d="m40 46.251c0 2.76 2.238 4.999 5 4.999s5-2.239 5-4.999c0-2.762-2.238-5.001-5-5.001s-5 2.239-5 5.001z" fill="#fff" fill-rule="evenodd"/></mask><g mask="url(#a)"><path clip-rule="evenodd" d="m17.5 73.75h55v-55h-55z" fill="#03d79e" fill-rule="evenodd"/></g><g mask="url(#b)"><path clip-rule="evenodd" d="m-3.75 16.25h82.5v-20h-82.5z" fill="#00ffa4" fill-rule="evenodd"/></g><g mask="url(#c)"><path clip-rule="evenodd" d="m35 56.25h20v-20h-20z" fill="#00ffa4" fill-rule="evenodd"/></g><g clip-rule="evenodd" fill="#00343d" fill-rule="evenodd"><path d="m1.25308 62.6938c-.211.001-.398.08-.539.222-.141.143-.218.331-.217.531.001.202.08.389.222.53.142.14.325.247.531.217h.003c.413 0 .75-.336.75-.75s-.337-.75-.75-.75z"/><path d="m27.048 49.4409.138.728-2.524-.503c-.813-.165-1.406-.885-1.412-1.712v-3.404c.001-.832.595-1.553 1.411-1.714l2.525-.505-.138.728c-.399 2.117-.399 4.265 0 6.382zm-18.798-28.191c0-1.654 1.346-3 3-3h30c1.654 0 3 1.346 3 3v1.75h-.95c-1.539.006-2.88 1.107-3.185 2.617l-.651 3.255-.272.093c-.785.266-1.557.589-2.297.959l-.26.13-2.774-1.852c-1.283-.849-3.007-.677-4.1.408l-2.407 2.402c-1.084 1.092-1.254 2.819-.403 4.103l1.848 2.771-.13.259c-.37.739-.692 1.512-.959 2.296l-.093.273-3.259.651c-1.505.308-2.603 1.648-2.608 3.186v3.399c.006 1.539 1.107 2.88 2.617 3.185l3.255.652.093.273c.267.784.589 1.556.959 2.295l.13.26-1.852 2.774c-.848 1.283-.677 3.008.408 4.1l2.402 2.408c1.092 1.086 2.82 1.253 4.103.403l2.77-1.848.26.13c.741.37 1.513.693 2.296.958l.273.093.651 3.259c.308 1.506 1.649 2.603 3.187 2.608h.948v3.5h-36zm38.451 3.25c.832.002 1.553.596 1.713 1.411l.506 2.524-.728-.137c-2.118-.399-4.266-.399-6.383 0l-.729.137.505-2.523c.163-.812.883-1.406 1.711-1.412zm-17.078 11.925-1.424-2.134c-.463-.694-.371-1.627.22-2.218l.322-.323.007.005 2.081-2.081c.597-.585 1.498-.672 2.195-.217l2.139 1.427-.598.42c-1.767 1.236-3.288 2.757-4.522 4.522zm5.553 25.203-2.135 1.423c-.296.197-.635.293-.972.293-.452 0-.901-.172-1.238-.507l-2.406-2.405c-.588-.589-.679-1.518-.216-2.209l1.425-2.136.419.599c1.236 1.765 2.758 3.287 4.523 4.522zm26.574-15.378c0 9.236-7.514 16.75-16.75 16.75s-16.75-7.514-16.75-16.75 7.514-16.75 16.75-16.75c9.226.011 16.739 7.524 16.75 16.75zm-4.784-16.791c.691-.46 1.621-.369 2.211.212l2.404 2.407c.588.59.679 1.519.215 2.211l-1.424 2.135-.42-.6c-1.234-1.765-2.756-3.286-4.521-4.522l-.599-.419zm4.83 28.756c.459.691.37 1.621-.213 2.21l-.002.002-2.402 2.404c-.339.335-.789.508-1.241.508-.337 0-.675-.096-.969-.291l-2.138-1.425.6-.42c1.765-1.236 3.287-2.757 4.521-4.522l.42-.599zm-13.381 8.373c-.163.813-.883 1.407-1.712 1.412h-3.403-.001c-.832-.001-1.553-.595-1.713-1.411l-.506-2.523.729.137c2.117.397 4.265.397 6.383 0l.728-.137zm14.537-23.529-.137-.728 2.521.504c.815.163 1.408.883 1.414 1.711v3.404c-.001.833-.596 1.553-1.412 1.715l-2.523.505.137-.729c.4-2.117.4-4.265 0-6.382zm-60.952-32.559v-4.25002c0-2.343 1.906-4.25 4.25-4.25h62.5c2.344 0 4.25 1.907 4.25 4.25v4.25002zm4.251 64h62.499c3.167-.003 5.746-2.583 5.75-5.75v-62.50002c-.004-3.166-2.583-5.746002-5.751-5.750002h-62.499c-3.167.004-5.746 2.584002-5.75 5.751002v52.49902c0 .414.337.75.75.75s.75-.336.75-.75v-46.75h71v56.75c0 2.343-1.906 4.25-4.25 4.25h-23v-3.5h.95c1.539-.005 2.879-1.106 3.185-2.617l.651-3.255.274-.093c.779-.264 1.551-.587 2.296-.958l.259-.13 2.774 1.851c1.283.848 3.009.677 4.101-.408l2.407-2.402c1.085-1.091 1.255-2.818.404-4.103l-1.85-2.772.13-.259c.368-.733.691-1.505.959-2.295l.093-.272 3.26-.652c1.504-.308 2.601-1.648 2.607-3.187v-3.398c-.006-1.539-1.106-2.879-2.617-3.185l-3.255-.651-.093-.273c-.265-.783-.589-1.555-.959-2.295l-.13-.259 1.852-2.776c.849-1.282.678-3.007-.407-4.1l-2.403-2.408c-1.09-1.084-2.818-1.253-4.103-.402l-2.77 1.847-.259-.129c-.745-.372-1.517-.695-2.296-.959l-.274-.093-.651-3.254c-.307-1.508-1.647-2.608-3.187-2.613h-.948v-1.75c0-2.481-2.018-4.5-4.5-4.5h-30c-2.481 0-4.5 2.019-4.5 4.5v51.75h-.5c-2.344 0-4.25-1.907-4.25-4.25 0-.413-.337-.75-.75-.75s-.75.337-.75.75c.004 3.167 2.583 5.747 5.751 5.75z"/><path d="m69.5 6.25c0-.414-.337-.75-.75-.75h-.5v-.5c0-.414-.337-.75-.75-.75s-.75.336-.75.75v.5h-.5c-.413 0-.75.336-.75.75s.337.75.75.75h.5v.5c0 .414.337.75.75.75s.75-.336.75-.75v-.5h.5c.413 0 .75-.336.75-.75z"/><path d="m61.25 5.5h-2.5c-.413 0-.75.336-.75.75s.337.75.75.75h2.5c.413 0 .75-.336.75-.75s-.337-.75-.75-.75z"/><path d="m58.25 46.2495c0-.413-.337-.75-.75-.75s-.75.337-.75.75c-.008 6.472-5.279 11.743-11.749 11.75-.414 0-.751.337-.751.75 0 .414.337.75.75.75 7.297-.008 13.241-5.952 13.25-13.25z"/><path d="m45 33c-7.297.008-13.241 5.953-13.25 13.25 0 .414.337.75.75.75s.75-.336.75-.75c.008-6.471 5.279-11.742 11.749-11.75.414 0 .751-.336.751-.75s-.337-.75-.75-.75z"/><path d="m45 50.5c-2.344 0-4.25-1.907-4.25-4.25s1.906-4.25 4.25-4.25 4.25 1.907 4.25 4.25-1.906 4.25-4.25 4.25zm0-10c-3.167.004-5.746 2.583-5.75 5.75 0 3.171 2.58 5.75 5.75 5.75 3.171 0 5.75-2.58 5.75-5.75s-2.579-5.75-5.75-5.75z"/><path d="m27.5 23h-13.75c-.413 0-.75.336-.75.75s.337.75.75.75h13.75c.413 0 .75-.336.75-.75s-.337-.75-.75-.75z"/><path d="m21.25 33h-7.5c-.413 0-.75.336-.75.75s.337.75.75.75h7.5c.413 0 .75-.336.75-.75s-.337-.75-.75-.75z"/><path d="m20 38h-6.25c-.413 0-.75.336-.75.75s.337.75.75.75h6.25c.413 0 .75-.336.75-.75s-.337-.75-.75-.75z"/><path d="m17.5 43h-3.75c-.413 0-.75.336-.75.75s.337.75.75.75h3.75c.413 0 .75-.336.75-.75s-.337-.75-.75-.75z"/><path d="m17.5 48h-3.75c-.413 0-.75.336-.75.75s.337.75.75.75h3.75c.413 0 .75-.336.75-.75s-.337-.75-.75-.75z"/><path d="m20 53h-6.25c-.413 0-.75.336-.75.75s.337.75.75.75h6.25c.413 0 .75-.336.75-.75s-.337-.75-.75-.75z"/><path d="m21.25 58h-7.5c-.413 0-.75.336-.75.75s.337.75.75.75h7.5c.413 0 .75-.336.75-.75s-.337-.75-.75-.75z"/><path d="m22.5 63h-8.75c-.413 0-.75.336-.75.75s.337.75.75.75h8.75c.413 0 .75-.336.75-.75s-.337-.75-.75-.75z"/><path d="m27.5 68h-13.75c-.413 0-.75.336-.75.75s.337.75.75.75h13.75c.413 0 .75-.336.75-.75s-.337-.75-.75-.75z"/><path d="m21.25 28h-7.5c-.413 0-.75.336-.75.75s.337.75.75.75h7.5c.413 0 .75-.336.75-.75s-.337-.75-.75-.75z"/></g></svg>
